X:1
T:Title
%%score { 1 | 2 }
L:1/8
M:4/4
K:G
V:1 treble nm="Grand Piano"
V:2 bass 
V:1
 z4 z z/[Q:1/4=85] D/ DD | [B,DG]2 [B,DG]2 [B,DG]3 [B,DG] | AGFG [FA]>D DD | BBBB d3 G | %4
[M:7/8] GFG B [DFA]3 |[M:1/8] D |[M:4/4] BBBA G3 D | cccB A3 D | ddGG [EGc][EGc][DGB][DEA] | %9
[M:25/32] [B,DG]>[B,DG][A,DF][CDF] [B,DG]2- [B,DG]/4 |] %10
V:2
 z4 z z/ D,/ D,D, | G,,2 G,,2 G,,3 G,, | [D,CD][D,B,D][D,A,D][D,B,D] [D,C]>[D,C] [E,B,][F,A,] | %3
 [G,D][G,D][G,D][G,D] [G,B,G]3 [G,B,D] |[M:7/8] [G,B,D][A,CD][B,D] [G,DG][K:bass] D,3 |[M:1/8] D, | %6
[M:4/4] [G,D][G,D][G,D][G,C] [G,B,]3 B, | [A,DF][A,DF][A,DF][G,DG][K:bass] [D,D]3 [D,C] | %8
 [G,B,D][G,B,D][E,B,E][E,B,E] A,,A,,B,,C, |[M:25/32] D,>D,D,D, G,,2- G,,/4 |] %10

